X:1
T:Bridge of Bucket
T:Bridge of Bucket
T:Alexander Walker
C:Alexander Walker
L:1/8
M:2/2
K:A
V:1 treble 
V:1
 F | (E2 E)F ECA,C | (E2 E)c BAFA | (E2 E)F ECA,c | dBeB cAA :| g | aece fBdf | aece fBBg | %8
 aece fdBd | cBAG AA,A,g | aece fBdf | aece fBBg | afge fdec | dBed cAA || %14

